img/svgicons/wallet1.svg

<svg width="37" height="37" viewBox="0 0 37 37" fill="none" xmlns="http://www.w3.org/2000/svg">
<g clip-path="url(#clip0_303_84)">
<path d="M33.3465 6.3725L22.051 0.255928C20.9795 -0.324476 19.5061 0.121988 18.9257 1.1935L12.318 13.4713H4.28168C3.25481 13.4713 2.45117 14.2749 2.45117 15.3018V18.5163V35.1695C2.45117 36.1964 3.25481 37 4.28168 37H29.9534C30.9803 37 31.7839 36.1964 31.7839 35.1695V30.5263H32.5429C32.9447 30.5263 33.2573 30.2137 33.2573 29.8119V24.499C33.2573 24.0972 32.9447 23.7846 32.5429 23.7846H31.7839V18.561C31.7839 17.7127 31.1589 16.9537 30.3552 16.7751L34.2841 9.49775C34.8645 8.38159 34.4627 6.99755 33.3465 6.3725ZM25.3102 3.64906L18.256 16.7305H16.2469L23.7922 2.84543L25.3102 3.64906ZM20.2205 1.8632C20.4437 1.46138 20.9795 1.2828 21.3813 1.50603L22.4974 2.13108L14.6397 16.7305H12.1841L20.2205 1.8632ZM3.83521 15.2572C3.83521 15.1232 4.0138 14.9 4.23703 14.9H11.5144L10.5322 16.6858H4.23703C4.10309 16.6858 3.96915 16.6858 3.83521 16.7305V15.2572ZM30.3106 35.1695C30.3106 35.3927 30.132 35.5713 29.9088 35.5713H4.23703C4.0138 35.5713 3.83521 35.3927 3.83521 35.1695V18.561C3.83521 18.3378 4.0138 18.1592 4.23703 18.1592H10.9787H13.836H19.0597H29.1051H29.8641C30.0874 18.1592 30.2659 18.3378 30.2659 18.561V23.7846H27.5425C26.337 23.7846 25.3995 24.7669 25.3995 25.9277V28.3832C25.3995 29.5887 26.3817 30.5263 27.5425 30.5263H30.3106V35.1695ZM31.7393 25.2133H31.7839V29.0976H31.7393H27.5425C27.1407 29.0976 26.8282 28.785 26.8282 28.3832V25.9277C26.8282 25.5258 27.1407 25.2133 27.5425 25.2133H31.7393ZM32.9894 8.78341L28.7033 16.7305H19.8633L26.5603 4.36341L32.6322 7.66725C33.0787 7.84583 33.2126 8.38159 32.9894 8.78341Z" fill="#337D5A"/>
<path d="M30.2661 8.11372L29.909 7.93513C29.016 7.44402 27.8106 7.80119 27.3195 8.69412L26.873 9.5424C26.6498 9.98887 26.5605 10.5246 26.739 11.0157C26.873 11.5069 27.2302 11.9087 27.6766 12.1319L28.0338 12.3105C28.3017 12.4444 28.6142 12.5337 28.9267 12.5337C29.6411 12.5337 30.2661 12.1319 30.6233 11.5515L31.0698 10.7032C31.5162 9.76564 31.1591 8.60483 30.2661 8.11372ZM29.775 10.0335L29.3285 10.8818C29.1946 11.105 28.8821 11.1943 28.6588 11.0604L28.3017 10.8372C28.2124 10.7925 28.1231 10.6586 28.0784 10.5693C28.0338 10.4353 28.0338 10.3014 28.1231 10.2121L28.5696 9.36382C28.6588 9.22988 28.8374 9.09594 29.016 9.09594C29.1053 9.09594 29.15 9.09594 29.2393 9.14059L29.5964 9.31917C29.775 9.49776 29.8643 9.76564 29.775 10.0335Z" fill="#337D5A"/>
</g>
<defs>
<clipPath id="clip0_303_84">
<rect width="37" height="37" fill="white"/>
</clipPath>
</defs>
</svg>

<svg width="37" height="37" fill="none" xmlns="http://www.w3.org/2000/svg"><g clip-path="url(#a)" fill="#337D5A"><path d="M33.346 6.372 22.051.256c-1.071-.58-2.545-.134-3.125.938L12.318 13.47H4.282a1.81 1.81 0 0 0-1.83 1.83V35.17A1.81 1.81 0 0 0 4.281 37h25.671a1.81 1.81 0 0 0 1.83-1.83v-4.644h.76a.705.705 0 0 0 .714-.714v-5.313a.705.705 0 0 0-.714-.714h-.76V18.56c0-.848-.624-1.607-1.428-1.786l3.93-7.277a2.34 2.34 0 0 0-.938-3.125ZM25.31 3.65 18.256 16.73h-2.01l7.546-13.885 1.518.804Zm-5.09-1.786c.224-.402.76-.58 1.161-.357l1.116.625-7.857 14.6h-2.456l8.037-14.868ZM3.835 15.257c0-.134.179-.357.402-.357h7.277l-.982 1.786H4.237c-.134 0-.268 0-.402.044v-1.473ZM30.311 35.17a.4.4 0 0 1-.402.401H4.237a.4.4 0 0 1-.402-.401V18.56a.4.4 0 0 1 .402-.402H29.865a.4.4 0 0 1 .4.402v5.224h-2.723a2.144 2.144 0 0 0-2.143 2.143v2.455c0 1.206.983 2.143 2.143 2.143h2.769v4.643Zm1.428-9.957h.045v3.885h-4.242a.705.705 0 0 1-.714-.715v-2.455c0-.402.313-.715.715-.715h4.196Zm1.25-16.43-4.286 7.947h-8.84L26.56 4.363l6.072 3.304c.447.179.58.715.357 1.116Z"/><path d="m30.266 8.114-.357-.179c-.893-.491-2.098-.134-2.59.76l-.446.847c-.223.447-.313.983-.134 1.474.134.49.491.893.938 1.116l.357.178c.268.134.58.224.893.224.714 0 1.34-.402 1.696-.982l.447-.849c.446-.937.09-2.098-.804-2.59Zm-.491 1.92-.447.848c-.133.223-.446.312-.67.178l-.356-.223c-.09-.044-.179-.178-.224-.268-.044-.134-.044-.268.045-.357l.447-.848c.089-.134.267-.268.446-.268.09 0 .134 0 .223.045l.357.178a.694.694 0 0 1 .179.714Z"/></g><defs><clipPath id="a"><path fill="#fff" d="M0 0h37v37H0z"/></clipPath></defs></svg>
